Origami/64x64/apps/display.im6.svg

<svg width="64" height="64" version="1" xmlns="http://www.w3.org/2000/svg">
 <path d="m56.433033 14.461595c-0.345997-0.034-0.713993 0.0362-1.105989 0.238198-3.145968 1.600384-6.325935 9.034708-7.163927 14.136656-0.143998 0.879991-0.135999 2.019979-0.074 3.233967 0.02-0.417996 0.016-0.879991 0.074-1.233988 0.837992-5.101948 4.017959-12.536272 7.163927-14.136656 3.135968-1.615383 4.705952 5.404745 6.327935 3.671763 0.373997-0.401796 0.419996-1.274787 0.219998-2.394376-0.056 0.155999-0.125999 0.293197-0.219998 0.394396-1.419985 1.515985-2.797971-3.672162-5.221946-3.90996zm-54.093448 35.951634c-0.2783972 0.453995-0.4220357 0.93799-0.2693973 1.491984 1.2121877 2.429976 1.6327834 2.699973 1.6327834 2.699973s7.0029284 10.81589 27.889715 7.893919c20.883787-2.92197 23.777758-7.683921 23.589759-10.045897-0.02-0.249998-0.107998-0.489995-0.211997-0.723993-0.965991 2.539974-5.769942 6.305936-23.377762 8.769911-20.887787 2.92197-27.889715-7.89392-27.889715-7.89392-8e-4 0-0.3825961-0.307997-1.3641861-2.191977z" style="opacity:.2"/>
 <path d="m37.445226 2.3813787c-5.723141 0.7977119-11.873279 3.8065612-16.876427 12.70847-11.439484 20.341793-10.627092 27.42172-12.450274 29.709697-1.8300213 2.278377-6.761731 3.514964-6.0485383 6.104938 1.2123077 2.429775 1.6327834 2.699572 1.6327834 2.699572s7.0027284 10.81669 27.889715 7.89512c20.885787-2.92157 23.781758-7.682922 23.591759-10.046098-0.189238-2.365776-4.596953-4.090758-4.596953-4.090758s-3.263166-12.424273-2.425375-17.524821c0.837712-5.102948 4.020159-12.539072 7.165527-14.139456 3.136168-1.615364 4.705552 5.404545 6.327735 3.671962 1.615984-1.735982-2.685972-11.956478-7.939919-15.002246-4.203957-2.8567709-8.837909-2.5819737-16.269834-1.9751799" style="fill:#3e50b4"/>
 <g transform="matrix(1.5156645 0 0 1.4191255 -4.285548 -.31103409)" style="opacity:.2">
  <path d="m22.089 17.167 3.882-0.22261 2.055-3.336 1.4104 3.805 3.7402 1.443-2.8837 2.4851-0.06285 4.0339-3.0605-2.1156-4.0939 1.4241 1.1473-3.9107m-2.1354-3.6076"/>
  <path d="m21.507 29.297 3.6481-1.4494 1.045-3.8492 2.3868 3.1734 3.9682 0.18472-2.0667 3.2934 1.045 3.8728-3.5005-1.0357-3.5166 2.6698 0.02339-4.1018m-3.0313-2.7566"/>
  <path d="m12.064 24.197 3.8761 0.31418 2.4262-3.0345 0.95295 3.966 3.5399 1.9483-3.1512 2.0667-0.5364 3.9897-2.7799-2.5103-4.2313 0.85098 1.5931-3.7181m-1.6896-3.8728"/>
 </g>
 <g transform="matrix(1.5156645,0,0,1.4191255,-4.285548,-1.3111636)" style="fill:#ffbe4b">
  <path d="m22.089 17.167 3.882-0.22261 2.055-3.336 1.4104 3.805 3.7402 1.443-2.8837 2.4851-0.06285 4.0339-3.0605-2.1156-4.0939 1.4241 1.1473-3.9107m-2.1354-3.6076"/>
  <path d="m21.507 29.297 3.6481-1.4494 1.045-3.8492 2.3868 3.1734 3.9682 0.18472-2.0667 3.2934 1.045 3.8728-3.5005-1.0357-3.5166 2.6698 0.02339-4.1018m-3.0313-2.7566"/>
  <path d="m12.064 24.197 3.8761 0.31418 2.4262-3.0345 0.95295 3.966 3.5399 1.9483-3.1512 2.0667-0.5364 3.9897-2.7799-2.5103-4.2313 0.85098 1.5931-3.7181m-1.6896-3.8728"/>
 </g>
 <path d="m16.439241 30.402293" style="fill:#2d2d2d"/>
 <path d="m44.75 1.9980469c-2.124916-0.01346-4.517716 0.1669836-7.304688 0.3945312v-0.0117187c-5.72314 0.7977119-11.873805 3.8070753-16.876953 12.708985-11.439483 20.341793-10.626037 27.421007-12.449218 29.708984-1.8300213 2.278377-6.7620208 3.515495-6.0488281 6.105469 0.0032328 0.006479 0.0045909 0.009176 0.0078125 0.015625 0.5693714-1.958676 4.4595518-3.152171 6.0410156-5.121094 1.8231814-2.287977 1.009735-9.367191 12.449218-29.708984 5.003148-8.9019093 11.153813-11.911273 16.876953-12.708985v0.0117187c7.431925-0.6067938 12.065575-0.8821615 16.269532 1.9746094 4.244053 2.460323 7.863876 9.5982585 8.248047 13.167968 0.374865-3.001045-3.550022-11.444473-8.248047-14.167968-2.627473-1.7854818-5.423318-2.3467073-8.964844-2.3691406zm3.289062 30.419922c-0.136828 5.700374 2.548829 15.945312 2.548829 15.945312s4.056062 1.592336 4.544921 3.814453c0.047735-0.257933 0.068457-0.504771 0.050782-0.724609-0.189238-2.365776-4.595703-4.089844-4.595703-4.089844s-2.393069-9.125598-2.548829-14.945312z" style="fill:#ffffff;opacity:.1"/>
</svg>

<svg xmlns="http://www.w3.org/2000/svg" width="64" height="64" version="1">
 <path style="opacity:0.2" d="m 56.433033,14.461595 c -0.345997,-0.034 -0.713993,0.0362 -1.105989,0.238198 -3.145968,1.600384 -6.325935,9.034708 -7.163927,14.136656 -0.143998,0.879991 -0.135999,2.019979 -0.074,3.233967 0.02,-0.417996 0.016,-0.879991 0.074,-1.233988 0.837992,-5.101948 4.017959,-12.536272 7.163927,-14.136656 3.135968,-1.615383 4.705952,5.404745 6.327935,3.671763 0.373997,-0.401796 0.419996,-1.274787 0.219998,-2.394376 -0.056,0.155999 -0.125999,0.293197 -0.219998,0.394396 -1.419985,1.515985 -2.797971,-3.672162 -5.221946,-3.90996 z M 2.3395845,50.413229 c -0.2783972,0.453995 -0.4220357,0.93799 -0.2693973,1.491984 1.2121877,2.429976 1.6327834,2.699973 1.6327834,2.699973 0,0 7.0029284,10.81589 27.8897154,7.893919 20.883787,-2.92197 23.777758,-7.683921 23.589759,-10.045897 -0.02,-0.249998 -0.107998,-0.489995 -0.211997,-0.723993 -0.965991,2.539974 -5.769942,6.305936 -23.377762,8.769911 -20.887787,2.92197 -27.8897154,-7.89392 -27.8897154,-7.89392 -8e-4,0 -0.3825961,-0.307997 -1.3641861,-2.191977 z"/>
 <path style="fill:#3e50b4" d="M 37.445226,2.3813787 C 31.722085,3.1790906 25.571947,6.1879399 20.568799,15.089849 9.1293152,35.431642 9.9417069,42.511569 8.1185255,44.799546 c -1.8300213,2.278377 -6.761731,3.514964 -6.0485383,6.104938 1.2123077,2.429775 1.6327834,2.699572 1.6327834,2.699572 0,0 7.0027284,10.81669 27.8897154,7.89512 20.885787,-2.92157 23.781758,-7.682922 23.591759,-10.046098 -0.189238,-2.365776 -4.596953,-4.090758 -4.596953,-4.090758 0,0 -3.263166,-12.424273 -2.425375,-17.524821 0.837712,-5.102948 4.020159,-12.539072 7.165527,-14.139456 3.136168,-1.615364 4.705552,5.404545 6.327735,3.671962 C 63.271163,17.634023 58.969207,7.4135274 53.71526,4.3677585 49.511303,1.5109876 44.877351,1.7857848 37.445426,2.3925786"/>
 <g style="opacity:0.2" transform="matrix(1.5156645,0,0,1.4191255,-4.285548,-0.31103409)">
  <path d="m 22.089,17.167 3.882,-0.22261 2.055,-3.336 1.4104,3.805 3.7402,1.443 -2.8837,2.4851 -0.06285,4.0339 -3.0605,-2.1156 -4.0939,1.4241 1.1473,-3.9107 m -2.1354,-3.6076"/>
  <path d="m 21.507,29.297 3.6481,-1.4494 1.045,-3.8492 2.3868,3.1734 3.9682,0.18472 -2.0667,3.2934 1.045,3.8728 -3.5005,-1.0357 -3.5166,2.6698 0.02339,-4.1018 m -3.0313,-2.7566"/>
  <path d="m 12.064,24.197 3.8761,0.31418 2.4262,-3.0345 0.95295,3.966 3.5399,1.9483 -3.1512,2.0667 -0.5364,3.9897 -2.7799,-2.5103 -4.2313,0.85098 1.5931,-3.7181 m -1.6896,-3.8728"/>
 </g>
 <g style="fill:#ffbe4b" transform="matrix(1.5156645,0,0,1.4191255,-4.285548,-1.3111636)">
  <path d="m 22.089,17.167 3.882,-0.22261 2.055,-3.336 1.4104,3.805 3.7402,1.443 -2.8837,2.4851 -0.06285,4.0339 -3.0605,-2.1156 -4.0939,1.4241 1.1473,-3.9107 m -2.1354,-3.6076"/>
  <path d="m 21.507,29.297 3.6481,-1.4494 1.045,-3.8492 2.3868,3.1734 3.9682,0.18472 -2.0667,3.2934 1.045,3.8728 -3.5005,-1.0357 -3.5166,2.6698 0.02339,-4.1018 m -3.0313,-2.7566"/>
  <path d="m 12.064,24.197 3.8761,0.31418 2.4262,-3.0345 0.95295,3.966 3.5399,1.9483 -3.1512,2.0667 -0.5364,3.9897 -2.7799,-2.5103 -4.2313,0.85098 1.5931,-3.7181 m -1.6896,-3.8728"/>
 </g>
 <path style="fill:#2d2d2d" d="M 16.439241,30.402293"/>
 <path style="fill:#ffffff;opacity:0.1" d="M 44.75 1.9980469 C 42.625084 1.9845869 40.232284 2.1650305 37.445312 2.3925781 L 37.445312 2.3808594 C 31.722172 3.1785713 25.571507 6.1879347 20.568359 15.089844 C 9.1288756 35.431637 9.942322 42.510851 8.1191406 44.798828 C 6.2891193 47.077205 1.3571198 48.314323 2.0703125 50.904297 C 2.0735453 50.910776 2.0749034 50.913473 2.078125 50.919922 C 2.6474964 48.961246 6.5376768 47.767751 8.1191406 45.798828 C 9.942322 43.510851 9.1288756 36.431637 20.568359 16.089844 C 25.571507 7.1879347 31.722172 4.1785713 37.445312 3.3808594 L 37.445312 3.3925781 C 44.877237 2.7857843 49.510887 2.5104166 53.714844 5.3671875 C 57.958897 7.8275105 61.57872 14.965446 61.962891 18.535156 C 62.337756 15.534111 58.412869 7.0906827 53.714844 4.3671875 C 51.087371 2.5817057 48.291526 2.0204802 44.75 1.9980469 z M 48.039062 32.417969 C 47.902234 38.118343 50.587891 48.363281 50.587891 48.363281 C 50.587891 48.363281 54.643953 49.955617 55.132812 52.177734 C 55.180547 51.919801 55.201269 51.672963 55.183594 51.453125 C 54.994356 49.087349 50.587891 47.363281 50.587891 47.363281 C 50.587891 47.363281 48.194822 38.237683 48.039062 32.417969 z"/>
</svg>
